X:2
T:Der Geisshirt. Schottisch  CGF 5- (st06821)
S:Hanny Christen. Bd.V  Basel II, Jura. S.16  (st06821) orig. F,C,Bb
S:Basel II. TÃ¤nze aus Augst. S.6-42.
S:Ãœberliefert durch Erwin Baumgartner (*1878) und Hans Tschudin (*1886)
%%MIDI program 21
R:Schottisch
M:2/4
L:1/8
K:C %%MIDI gchordon
G/2G/2 | "C"Ge ee | c3G/2G/2 | Ge ee | c3z | "G7"d>e f>e | dc Bz | GB gf | "C"e2zG/2G/2 | 
Ge ee | c3G/2G/2 | Ge ee | c3z | "D7"d>e f>e | dc Bz | GG e>d | "C"cc cz || [K:G] 
"G"d/2d/2d/2z/2 BG | d/2d/2d/2z/2 eB | "D7"d/2d/2d/2z/2 cA | d3d | f>g f>g | c2 c/2B/2c/2d/2 | "G"e>d e>d | B2 B/2A/2B/2c/2 | 
d/2d/2d/2z/2 BG | d/2d/2d/2z/2 eB | "D7"d/2d/2d/2z/2 cA | d3d | f3e | dc BA | "G"Be "D7"Ad | "G"G2"_>Teil A"G2 || [K:F] 
|: "F"A/2A/2A/2A/2 AA | (c3A) | cd Ad | ("C7"c2.G2) | c/2c/2c/2c/2 cc | e3d | cB AG | ("F"A2.F2) | 
A/2A/2A/2A/2 AA | (c3A) | cd Ad | ("C7"c2.G2) | c/2c/2c/2c/2 cc | e3d | ce a>g | "F"ff f"_Fine"z :| 
W:Parts: ABAC
W:Anmerkung H.C.: 14. Sept. 1949
% st06821 (Heft 235/TN 30)
% Oct 30, 2017 

